X:913
T:Saint Anne's Reel
R:reel
H:This is a French Canadian version. See also Irish version #462
Z:id:hn-reel-913
M:C|
K:D
de | f2fg fedB | A2F2 F2Ad | B2G2 G2Bd | B2A2 A2de |
f2fg fedB | A2F2 F2Ad | BGBd cAce | d2f2 d2 :|
|: ag | fdfa fdfa | aggf g2ef | gfed cdeg | baa^g a2a=g |
fdfa fdfa | aggf g2ef | gfed cdeg | fdec d2 :|

